X: 98
M: C
L: 1/8
K: D
(A>G) | F2 (ED) d3 e | {d e }f2 (ed) c2 (BA) |
d3 e | f2 (ed) c2 (BA) | (B>c) (de) (fed) c |
(B3 c) d2 :: (ed) | c2 (BA) A3 f | (ec) (B>c)
(F2 TE3) D :|
K:

